X:79
T: ES WAR EIN KOENIG IN THULE
N: B0110
O: Europa, Mitteleuropa, Deutschland
R: Ballade, Romanze
M: 6/4
L: 1/8
K: A
e2 | a4a2e3ee2 | =f6=c4
c2 | d4e2=f4d2 | e8z2
e2 | a4a2=g4g2 | =c6d4
dd | e4=f2d4e2 | A8z2

@@@ Tune index: 1882
